packages/core/src/svgs/tokens/mono/INTR.svg

<svg width="24" height="24" viewBox="0 0 24 24" fill="none" xmlns="http://www.w3.org/2000/svg">
<path d="M7.57957 7.00191L20.5119 6.97691L16.4197 4.50292H3.45L7.57957 7.00191ZM21.6301 7.62666H7.47962C7.41173 7.62785 7.34479 7.61057 7.28594 7.57667L2.17551 4.52792C2.10814 4.49012 2.05545 4.43072 2.02598 4.3593C1.99652 4.2879 1.99197 4.20863 2.01308 4.13433C2.05681 3.98439 2.2005 3.87817 2.36294 3.87817H16.5135C16.5821 3.87817 16.6509 3.89692 16.7072 3.92816L21.8176 6.97691C21.9612 7.05814 22.0237 7.22058 21.98 7.37052C21.9363 7.52045 21.7925 7.62666 21.6301 7.62666ZM7.81073 19.4969H20.518L16.4072 16.9978H3.49998L7.81073 19.4969ZM7.48587 20.1216C7.41797 20.1228 7.35103 20.1055 7.29219 20.0716L2.18177 17.0229C2.11438 16.985 2.06171 16.9257 2.03223 16.8543C2.00276 16.7828 1.99821 16.7035 2.01933 16.6293C2.06306 16.4793 2.20675 16.3731 2.36919 16.3731H16.5197C16.5884 16.3731 16.6572 16.3919 16.7133 16.4231L21.8237 19.4719C21.9675 19.5531 22.03 19.7155 21.9863 19.8655C21.9425 20.0154 21.7988 20.1216 21.6364 20.1216H7.48587ZM11.9965 14.4988C11.6684 14.5006 11.3431 14.4375 11.0392 14.3134C10.7354 14.1894 10.459 14.0067 10.2258 13.7758C9.75479 13.3095 9.48831 12.6752 9.48511 12.0124C9.48175 11.3497 9.74181 10.7126 10.2081 10.2416C10.6745 9.77065 11.3087 9.50417 11.9716 9.50097H11.9965C12.3233 9.49849 12.6474 9.56059 12.95 9.68377C13.2526 9.8068 13.528 9.98858 13.7602 10.2185C13.9924 10.4484 14.177 10.7218 14.3031 11.0233C14.4293 11.3247 14.4946 11.6481 14.4955 11.9749C14.4989 12.303 14.4375 12.6287 14.3149 12.9331C14.1923 13.2376 14.011 13.5149 13.7814 13.7493C13.5516 13.9837 13.2779 14.1706 12.976 14.2991C12.6741 14.4277 12.3497 14.4956 12.0216 14.4988H11.9965Z" fill="white"/>
</svg>

<svg xmlns="http://www.w3.org/2000/svg" width="24" height="24" fill="none" viewBox="0 0 24 24">
    <path fill="#fff" d="m7.58 7.002 12.932-.025-4.092-2.474H3.45zm14.05.625H7.48a.4.4 0 0 1-.194-.05l-5.11-3.05a.344.344 0 0 1-.163-.393.36.36 0 0 1 .35-.256h14.15c.07 0 .138.019.194.05l5.11 3.049a.34.34 0 0 1 .163.394.36.36 0 0 1-.35.256M7.81 19.497h12.708l-4.11-2.5H3.5zm-.324.625a.4.4 0 0 1-.194-.05l-5.11-3.05a.344.344 0 0 1-.163-.393.36.36 0 0 1 .35-.256h14.15c.07 0 .138.019.194.05l5.11 3.049a.34.34 0 0 1 .163.393.36.36 0 0 1-.35.257zm4.51-5.623a2.496 2.496 0 0 1-2.51-2.487 2.5 2.5 0 0 1 2.486-2.511h.024a2.48 2.48 0 0 1 2.5 2.474 2.496 2.496 0 0 1-2.474 2.524z"/>
</svg>
